!!!OTL: Zwist und Versoehnung.
!!!OTL-incipit: EIN HAEFELEIN, EIN SCHUESSELEIN IST ALL MEIN KUECHENGESCHIRR
!!!ARE: Europa, Mitteleuropa, Deutschland, Bayern; Tirol
!!!SCT: Z1190
!!!YEM: Copyright 1995, estate of Helmut Schaffrath.
**kern	**text
*ICvox	*
*M2/4	*
*k[]	*
*C:	*
!LO:TX:a:t=Aus Tyrol und Bayern.	!
{8cc/	Ein
=1	=1
8cc/	Hä-
8g	-fe-
8g	-lein,
8cc/	ein
=2	=2
8cc/	Schüſſe-
8a	.
8a}	-lein,
{16dd/L	iſt
16ccJ	.
=3	=3
8b/	all'
8g	mein
8a	Kü-
8b/	-chen-
=4	=4
4cc/	-g'ſchirr,
8r}	.
{8cc/	lad'
=5	=5
8cc/	ich
8g	es
8g	auf
8cc/	a
=6	=6
8cc/	Wäge-
8a	.
8a}	-lein,
{16dd/L	da
16ccJ	.
=7	=7
8b/	gäb's
8g	ein
8a	ſchön
8b/	Ge-
=8	=8
4cc/	-klirr;
8r}	.
{8cc/	mein
=9	=9
8b/	Schatʒ
8cc/	thut
8dd/	mir
8b/	nach-
=10	=10
8cc/L	-lau-
8ddJ	.
8ee/}	-fen,
{8cc/	was
=11	=11
8b/	brauch'
8cc/	ich
8dd/	ihn
8b/	ʒu
=12	=12
8cc/L	kau-
8ddJ	.
8ee/}	-fen;
{8cc/	ein
=13	=13
8cc/	Hä-
8g	-fe-
8g	-lein,
8cc/	ein
=14	=14
8cc/	Schüſſe-
8a	.
8a}	-lein,
{16dd/L	iſt
16ccJ	.
=15	=15
8b/	all'
8g	mein
8a	Kü-
8b/	-chen-
=16	=16
4cc/	-g'ſchirr!
8r}	.
==	==
!!!AGN: Liebes - Lied
!!!ONB: ESAC (Essen Associative Code) Database: ZUCCAL
!!!AMT: simple duple
!!!AIN: vox
!!!EED: Helmut Schaffrath
!!!EEV: 1.0
!!!GTL: V. Lieder der Minne.
!!!URL-scan: https://www.digitale-sammlungen.de/de/view/bsb11160573?page=390
!!!ENC: Anna Maria Matuszewska
!!!EEV: 2025/02/05
*-	*-
